resources/icons/20px/binary-number.svg

<svg width="20" height="20" viewBox="0 0 20 20" fill="none" xmlns="http://www.w3.org/2000/svg">
<path fill-rule="evenodd" clip-rule="evenodd" d="M8.01129 5.48077C7.57992 5.16026 7.02005 5 6.33168 5C5.64332 5 5.07886 5.16026 4.63831 5.48077C4.20693 5.79212 3.86734 6.19506 3.61953 6.68956C3.38089 7.17491 3.21569 7.71062 3.12391 8.2967C3.0413 8.88278 3 9.45055 3 10C3 10.5495 3.0413 11.1172 3.12391 11.7033C3.21569 12.2894 3.38089 12.8297 3.61953 13.3242C3.86734 13.8095 4.20693 14.2125 4.63831 14.533C5.07886 14.8443 5.64332 15 6.33168 15C7.02005 15 7.57992 14.8443 8.01129 14.533C8.45184 14.2125 8.79144 13.8095 9.03007 13.3242C9.27788 12.8297 9.44309 12.2894 9.52569 11.7033C9.61747 11.1172 9.66336 10.5495 9.66336 10C9.66336 9.45055 9.61747 8.88278 9.52569 8.2967C9.44309 7.71062 9.27788 7.17491 9.03007 6.68956C8.79144 6.19506 8.45184 5.79212 8.01129 5.48077ZM7.18525 13.4066C6.9558 13.5989 6.67127 13.6951 6.33168 13.6951C5.98291 13.6951 5.6938 13.5989 5.46434 13.4066C5.24407 13.2051 5.06509 12.9396 4.92742 12.6099C4.79892 12.2711 4.70714 11.8773 4.65207 11.4286C4.597 10.9799 4.56947 10.5037 4.56947 10C4.56947 9.49634 4.597 9.02472 4.65207 8.58517C4.70714 8.13645 4.79892 7.74267 4.92742 7.40385C5.06509 7.06502 5.24407 6.79945 5.46434 6.60714C5.6938 6.40568 5.98291 6.30495 6.33168 6.30495C6.67127 6.30495 6.9558 6.40568 7.18525 6.60714C7.41471 6.79945 7.59368 7.06502 7.72218 7.40385C7.85985 7.74267 7.95622 8.13645 8.01129 8.58517C8.06636 9.02472 8.09389 9.49634 8.09389 10C8.09389 10.5037 8.06636 10.9799 8.01129 11.4286C7.95622 11.8773 7.85985 12.2711 7.72218 12.6099C7.59368 12.9396 7.41471 13.2051 7.18525 13.4066ZM13.0023 6.57143C12.6777 6.62857 12.3436 6.65714 12 6.65714V7.94286H14.4627V15H16.2524V5H14.9209C14.8636 5.30476 14.7395 5.5619 14.5486 5.77143C14.3672 5.98095 14.1429 6.15238 13.8757 6.28571C13.6179 6.41905 13.3268 6.51429 13.0023 6.57143Z" fill="#5F6B7C"/>
</svg>

<svg xmlns="http://www.w3.org/2000/svg" viewBox="0 0 20 20">
  <path d="M8.011 5.48Q7.365 5 6.331 5 5.3 5 4.639 5.48A3.3 3.3 0 0 0 3.62 6.69a5.6 5.6 0 0 0-.496 1.607A12 12 0 0 0 3 10q0 .825.124 1.703.138.88.496 1.621.371.729 1.018 1.209.66.467 1.694.467 1.032 0 1.68-.467.66-.48 1.018-1.209a5.2 5.2 0 0 0 .496-1.62q.137-.88.137-1.704 0-.825-.137-1.703A5 5 0 0 0 9.03 6.69a3.1 3.1 0 0 0-1.019-1.21m-.826 7.927q-.345.288-.853.288-.524 0-.868-.288-.33-.303-.537-.797a5 5 0 0 1-.275-1.181A12 12 0 0 1 4.57 10q0-.755.083-1.415.083-.673.275-1.181.207-.509.537-.797.345-.302.868-.302.51 0 .853.302.345.288.537.797.207.508.29 1.181.082.66.082 1.415 0 .756-.083 1.429a4.6 4.6 0 0 1-.289 1.18q-.192.495-.537.798m5.817-6.836A6 6 0 0 1 12 6.657v1.286h2.463V15h1.79V5H14.92a1.54 1.54 0 0 1-.372.771q-.273.315-.673.515a3 3 0 0 1-.874.285"/>
</svg>
